img/svg/profile-icons/position-ico.svg

<svg width="22" height="22" viewBox="0 0 22 22" fill="none" xmlns="http://www.w3.org/2000/svg">
<path d="M7.43359 21.1406C7.43359 21.6153 7.04889 22 6.57422 22H4.59766C2.70216 22 1.16016 20.458 1.16016 18.5625V3.4375C1.16016 1.54201 2.70216 0 4.59766 0H15.1633C17.0586 0 18.6008 1.54201 18.6008 3.4375V8.55078C18.6008 9.02545 18.2159 9.41016 17.7414 9.41016C17.2667 9.41016 16.882 9.02545 16.882 8.55078V3.4375C16.882 2.48984 16.1109 1.71875 15.1633 1.71875H4.59766C3.64999 1.71875 2.87891 2.48984 2.87891 3.4375V18.5625C2.87891 19.5102 3.64999 20.2812 4.59766 20.2812H6.57422C7.04889 20.2812 7.43359 20.666 7.43359 21.1406ZM15.1631 6.01562C15.1631 5.54095 14.7784 5.15625 14.3037 5.15625H5.45216C4.97766 5.15625 4.59279 5.54095 4.59279 6.01562C4.59279 6.4903 4.97766 6.875 5.45216 6.875H14.3037C14.7784 6.875 15.1631 6.4903 15.1631 6.01562ZM11.7305 9.45312C11.7305 8.97845 11.3458 8.59375 10.8711 8.59375H5.45216C4.97766 8.59375 4.59279 8.97845 4.59279 9.45312C4.59279 9.9278 4.97766 10.3125 5.45216 10.3125H10.8711C11.3458 10.3125 11.7305 9.9278 11.7305 9.45312ZM5.45216 12.0312C4.97766 12.0312 4.59279 12.416 4.59279 12.8906C4.59279 13.3653 4.97766 13.75 5.45216 13.75H9.02344C9.49811 13.75 9.88281 13.3653 9.88281 12.8906C9.88281 12.416 9.49811 12.0312 9.02344 12.0312H5.45216ZM20.4449 21.3607C20.1142 21.767 19.6263 22 19.1062 22H10.7142C10.1911 22 9.70171 21.7672 9.37138 21.3613C9.03905 20.953 8.90997 20.4224 9.01723 19.9058C9.29485 18.5684 10.0302 17.3515 11.0876 16.4792C11.4881 16.1489 11.9282 15.8739 12.3948 15.6591C11.8748 15.0684 11.5586 14.2945 11.5586 13.4477C11.5586 11.5995 13.062 10.0961 14.9102 10.0961C16.7583 10.0961 18.2617 11.5995 18.2617 13.4477C18.2617 14.2945 17.9455 15.0684 17.4255 15.6591C17.8921 15.8739 18.3322 16.1487 18.7327 16.4792C19.769 17.334 20.4958 18.5199 20.7858 19.8255C20.7925 19.8482 20.7982 19.871 20.8031 19.8944C20.9108 20.414 20.7803 20.9484 20.4449 21.3607V21.3607ZM13.2773 13.4477C13.2773 14.348 14.0098 15.0805 14.9102 15.0805C15.8105 15.0805 16.543 14.348 16.543 13.4477C16.543 12.5474 15.8105 11.8149 14.9102 11.8149C14.0098 11.8149 13.2773 12.5474 13.2773 13.4477ZM19.1206 20.2569C19.1204 20.2564 19.1203 20.2557 19.1203 20.2552C18.7075 18.2678 16.9369 16.8251 14.9102 16.8251C12.8834 16.8251 11.1126 18.2678 10.7001 20.2552C10.6962 20.2745 10.7095 20.2807 10.7095 20.2809C10.7098 20.2809 10.7113 20.2812 10.7142 20.2812H19.1062C19.1067 20.2807 19.1182 20.272 19.1206 20.2569V20.2569Z" fill="#4C51CC"/>
</svg>

<svg width="22" height="22" fill="none" xmlns="http://www.w3.org/2000/svg"><path d="M7.434 21.14a.86.86 0 01-.86.86H4.598a3.441 3.441 0 01-3.438-3.438V3.438A3.441 3.441 0 014.598 0h10.565a3.441 3.441 0 013.438 3.438V8.55a.86.86 0 01-1.719 0V3.437a1.72 1.72 0 00-1.719-1.718H4.598a1.72 1.72 0 00-1.72 1.718v15.126a1.72 1.72 0 001.72 1.718h1.976a.86.86 0 01.86.86zm7.73-15.124a.86.86 0 00-.86-.86H5.452a.86.86 0 000 1.719h8.852a.86.86 0 00.86-.86zM11.73 9.453a.86.86 0 00-.859-.86H5.452a.86.86 0 000 1.72h5.42a.86.86 0 00.858-.86zm-6.278 2.578a.86.86 0 000 1.719h3.571a.86.86 0 100-1.719h-3.57zm14.993 9.33a1.72 1.72 0 01-1.339.639h-8.392a1.737 1.737 0 01-1.697-2.094 6.055 6.055 0 012.07-3.427 6.02 6.02 0 011.308-.82 3.336 3.336 0 01-.836-2.211 3.355 3.355 0 013.351-3.352 3.355 3.355 0 013.352 3.352c0 .846-.317 1.62-.837 2.211.467.215.907.49 1.308.82a6.056 6.056 0 012.07 3.415 1.751 1.751 0 01-.358 1.467zm-7.168-7.913c0 .9.733 1.633 1.633 1.633s1.633-.733 1.633-1.633-.732-1.633-1.633-1.633c-.9 0-1.633.732-1.633 1.633zm5.844 6.809v-.002a4.32 4.32 0 00-4.21-3.43 4.32 4.32 0 00-4.21 3.43c-.005.02.008.026.008.026h8.397s.012-.009.015-.024z" fill="#4C51CC"/></svg>
